Newaita-dark/.LP/128/media-skip-backward.svg

<?xml version="1.0" encoding="UTF-8"?>
<svg xmlns="http://www.w3.org/2000/svg" xmlns:xlink="http://www.w3.org/1999/xlink" width="128pt" height="128pt" viewBox="0 0 128 128" version="1.1">
<g id="surface1">
<path style=" stroke:none;fill-rule:nonzero;fill:rgb(25.882354%,25.882354%,25.882354%);fill-opacity:1;" d="M 63.507812 122.71875 C 95.757812 122.71875 121.71875 96.757812 121.71875 64.507812 C 121.71875 32.253906 95.757812 6.292969 63.507812 6.292969 C 31.253906 6.292969 5.292969 32.253906 5.292969 64.507812 C 5.292969 96.757812 31.253906 122.71875 63.507812 122.71875 Z M 63.507812 112.136719 C 37.121094 112.136719 15.875 90.894531 15.875 64.507812 C 15.875 38.121094 37.121094 16.875 63.507812 16.875 C 89.894531 16.875 111.136719 38.121094 111.136719 64.507812 C 111.136719 90.894531 89.894531 112.136719 63.507812 112.136719 Z M 63.507812 112.136719 "/>
<path style=" stroke:none;fill-rule:evenodd;fill:rgb(25.882354%,64.705884%,96.078432%);fill-opacity:1;" d="M 84.675781 38.046875 C 87.542969 38.121094 89.832031 40.46875 89.832031 43.335938 L 89.832031 85.675781 C 89.832031 90.113281 84.699219 92.578125 81.234375 89.808594 L 54.773438 68.636719 C 52.125 66.519531 52.125 62.492188 54.773438 60.375 L 81.234375 39.203125 C 82.207031 38.425781 83.425781 38.015625 84.675781 38.046875 Z M 84.675781 38.046875 "/>
<path style=" stroke:none;fill-rule:nonzero;fill:rgb(25.882354%,64.705884%,96.078432%);fill-opacity:1;" d="M 44.601562 38.046875 L 45.363281 38.046875 C 48.078125 38.046875 50.277344 40.414062 50.277344 43.335938 L 50.277344 85.675781 C 50.277344 88.597656 48.078125 90.96875 45.363281 90.96875 L 44.601562 90.96875 C 41.890625 90.96875 39.691406 88.597656 39.691406 85.675781 L 39.691406 43.335938 C 39.691406 40.414062 41.890625 38.046875 44.601562 38.046875 Z M 44.601562 38.046875 "/>
</g>
</svg>

<svg xmlns="http://www.w3.org/2000/svg" width="128pt" height="128pt" viewBox="0 0 128 128"><path d="M63.508 122.719c32.25 0 58.21-25.961 58.21-58.211 0-32.254-25.96-58.215-58.21-58.215-32.254 0-58.215 25.96-58.215 58.215 0 32.25 25.96 58.21 58.215 58.21zm0-10.582c-26.387 0-47.633-21.242-47.633-47.63 0-26.386 21.246-47.632 47.633-47.632 26.387 0 47.629 21.246 47.629 47.633 0 26.387-21.242 47.629-47.63 47.629zm0 0" fill="#424242"/><path d="M84.676 38.047a5.294 5.294 0 0 1 5.156 5.289v42.34c0 4.437-5.133 6.902-8.598 4.133l-26.46-21.172c-2.649-2.117-2.649-6.145 0-8.262l26.46-21.172a5.3 5.3 0 0 1 3.442-1.156zm0 0" fill-rule="evenodd" fill="#42a5f5"/><path d="M44.602 38.047h.761c2.715 0 4.914 2.367 4.914 5.289v42.34c0 2.922-2.199 5.293-4.914 5.293h-.761c-2.711 0-4.91-2.371-4.91-5.293v-42.34c0-2.922 2.199-5.29 4.91-5.29zm0 0" fill="#42a5f5"/></svg>
